X:1
T:Who Will Follow Jesus?
T:Who Will Follow Jesus?
T:Eliza Edmunds Hewitt
T:Eliza Edmunds Hewitt, 1892
T:Public Domain Courtesy of the Cyber Hymnal™
T:Public Domain Courtesy of the Cyber Hymnal™
C:Eliza Edmunds Hewitt
Z:Public Domain
Z:Courtesy of the Cyber Hymnal™
%%score ( 1 2 ) ( 3 4 )
L:1/8
Q:1/4=95
M:4/4
K:D
V:1 treble 
V:2 treble 
V:3 bass 
V:4 bass 
V:1
 [FA]>[FA] [FA]>[GB] [FA]2 [DF]2 | [DF]>[DF] [CF]>[CE] D4 | [DB]>[DB] [DB]>[Dc] [Dd]2 [GB]2 | %3
w: 1.~Who will fol- low Je- sus,|Stand- ing for the right,|Hold- ing up His ban- ner|
w: 2.~Who will fol- low Je- sus,|In life’s bu- sy ways,|Work- ing for the Mas- ter,|
w: 3.~Who will fol- low Je- sus|When the temp- ter charms?|Flee- ing then, for safe- ty,|
w: 4.~Who will fol- low Je- sus,|In His work of love,|Lead- ing o- thers to Him,|
 [FA]>[FA] [FA]>[DF] [CE]4 | [CE]>[CE] [CE]>[DF] [EG]2 [CE]2 | [DF]>[DF] [DF]>[EG] [FA]4 | %6
w: In the thick- est fight?|List- ening for His or- ders,|Rea- dy to o- bey,|
w: Giv- ing Him the praise;|Ear- nest in His vine- yard,|Hon- or- ing His laws,|
w: To the Sav- ior’s arms;|Trust- ing in His mer- cy,|Trust- ing in His power,|
w: Lift- ing prayers a- bove?|Cour- age, faith- ful ser- vant!|In His Word we see,|
 [GB]>[Gd] [Gc]>[GB] [FA]2 [Fd]2 | [CE]>[EG] [DF]>[CE] D4 || %8
w: Who will fol- low Je- sus,|Serv- ing Him to- day?|
w: Faith- ful to His coun- sel,|Watch- ful for His cause?|
w: Seek- ing fresh re- new- als|Of His grace each hour?|
w: On our side for- ev- er|Will this Sav- ior be.|
"^Refrain" [FA]>[FA] [FA]>[GB] [FA]2 [DF]2 | [Fd]>[Fd] [Fd]>[GB] [FA]4 | %10
w: ||
w: ||
w: ||
w: ||
 [EG]>[EG] [EG]>[EA] [EG]2 [CE]2 | [Gc]>[GB] [FA]>[EG] [DF]4 | [FA]>[FA] [FA]>[GB] [FA]2 [DF]2 | %13
w: |||
w: |||
w: |||
w: |||
 [Fd]>[Fd] [Fd]>[GB] [FA]4 | D>E F>G A2 !fermata![Fd]2 | E>[EG] [DF]>[CE] D4 |] %16
w: |||
w: |||
w: |||
w: |||
V:2
 x8 | x4 D4 | x8 | x8 | x8 | x8 | x8 | x4 D4 || x8 | x8 | x8 | x8 | x8 | x8 | D>E F>G A2 x2 | %15
 E3/2 x D4 x3/2 |] %16
V:3
 [D,D]>[D,D] [D,D]>[D,D] [D,D]2 [D,A,]2 | A,>A, [A,,A,]>[A,,G,] [D,F,]4 | %2
w: ~ ~ ~ ~ ~ ~|~ ~ ~ ~ ~|
 G,>G, G,>[G,A,] [G,B,]2 [G,D]2 | [D,D]>[D,D] [D,D]>[D,A,] [A,,A,]4 | %4
w: ~ ~ ~ ~ ~ ~|~ ~ ~ ~ ~|
 [A,,A,]>[A,,A,] [A,,A,]>[A,,A,] [A,,A,]2 [A,,A,]2 | [D,A,]>[D,A,] [D,A,]>[D,A,] [D,D]4 | %6
w: ~ ~ ~ ~ ~ ~|~ ~ ~ ~ ~|
 [G,D]>[G,B,] [G,C]>[G,D] [A,D]2 A,2 | [A,,A,]>[A,,A,] [A,,A,]>[A,,G,] [D,F,]4 || %8
w: ~ ~ ~ ~ ~ ~|~ ~ ~ ~ ~|
 [D,D]>[D,D] [D,D]>[D,D] [D,D]2 [D,A,]2 | [D,A,]>[D,A,] [D,A,]>[D,D] [D,D]4 | %10
w: Who will fol- low Je- sus?|Who will make re- ply,|
 [A,,C]>[A,,C] [A,,C]>[A,,C] [A,,C]2 [A,,A,]2 | [A,,E]>[A,,E] [A,,A,]>[A,,A,] [D,A,]4 | %12
w: “I am on the Lord’s side;|Mas- ter, here am I”?|
 [D,D]>[D,D] [D,D]>[D,D] [D,D]2 [D,A,]2 | [D,A,]>[D,A,] [D,A,]>[D,D] [D,D]4 | %14
w: Who will fol- low Je- sus?|Who will make re- ply,|
 D,>E, F,>G, A,2 !fermata![D,A,]2 | [G,,B,]>[G,,B,] [A,,A,]>[A,,G,] [D,F,]4 |] %16
w: “I am on the Lord’s side;|Mas- ter, here am I”?|
V:4
 x8 | A,>A, x6 | G,>G, G,3/2 x9/2 | x8 | x8 | x8 | x6 A,2 | x8 || x8 | x8 | x8 | x8 | x8 | x8 | %14
 D,>E, F,>G, A,2 x2 | x8 |] %16

